X: 50
T:Missa Veni Sancte Spiritus / Agnus Dei
N: Derived from Jos0406e-Missa_Veni_sancte_spiritus-Agnus.krn
C: Josquin des Prez
%%abc-version 2.0
%%abcx-abcm2ps-target-version 5.9.1 (29 Sep 2008)
%%abc-creator hum2abc beta
%%abcx-conversion-date 2019/02/12 16:15:40
%%abc-edited-by Jesse Rodin
%%abc-edited-by Will Watson 2011/05/03
%%abcx-initial-encoding-date 2011/05/03/
%%humdrum-veritas 3497543059
%%humdrum-veritas-data 2012898231
%%linebreak <none>
%%barnumbers 0
L: 1/4
M: 2/1
Q: 1/2=120
V: 1 clef=treble
V: 2 clef=treble-8
V: 3 clef=treble-8
V: 4 clef=treble-8
V: 5 clef=bass
K: C
[V:1] z8 | 
[V:2] z8 | 
[V:3] d8 | 
[V:4] z8 | 
[V:5] G,8- | 
[V:1] G8 | 
[V:2] z8 | 
[V:3] B4c4- | 
[V:4] z8 | 
[V:5] G,4C,4- | 
[V:1] E4F4- | 
[V:2] z8 | 
[V:3] c2A2A4 | 
[V:4] z8 | 
[V:5] C,4D,4- | 
[V:1] F2D2D4 | 
[V:2] z8 | 
[V:3] z2B4G2 | 
[V:4] z8 | 
[V:5] D,4G,4 | 
[V:1] F4G2A2- | 
[V:2] z2d2e2f2 | 
[V:3] A4G2F2 | 
[V:4] z8 | 
[V:5] D,2F,2E,2D,2 | 
[V:1] AGG4^F2 | 
[V:2] e2c2d4 | 
[V:3] G4A4 | 
[V:4] z8 | 
[V:5] E,4D,4 | 
[V:1] G8 | 
[V:2] z4d4 | 
[V:3] G4z4 | 
[V:4] B8 | 
[V:5] G,,8 | 
[V:1] z8 | 
[V:2] e8- | 
[V:3] G4c4- | 
[V:4] c6BA | 
[V:5] C,8 | 
[V:1] G8 | 
[V:2] e8 | 
[V:3] c2BAG4 | 
[V:4] G3AB2G2- | 
[V:5] E,8 | 
[V:1] A8 | 
[V:2] f8 | 
[V:3] d8 | 
[V:4] G2FEF4 | 
[V:5] D,8 | 
[V:1] G8 | 
[V:2] e8- | 
[V:3] B8 | 
[V:4] G8 | 
[V:5] E,8 | 
[V:1] A4c4- | 
[V:2] e8 | 
[V:3] c8- | 
[V:4] z8 | 
[V:5] A,,4A,4- | 
[V:1] c2B2A2G2 | 
[V:2] z4f4- | 
[V:3] c4d4- | 
[V:4] A8 | 
[V:5] A,2G,2F,2E,2 | 
[V:1] A4F4 | 
[V:2] f2e2d4- | 
[V:3] d2cBA4 | 
[V:4] d6c2 | 
[V:5] D,8 | 
[V:1] G8 | 
[V:2] d2cBc4 | 
[V:3] G8 | 
[V:4] B4G4 | 
[V:5] E,8 | 
[V:1] F4z2F2 | 
[V:2] d2A4d2 | 
[V:3] z2d3c/B/A2 | 
[V:4] A4F4 | 
[V:5] D,8 | 
[V:1] G2A3Bc2- | 
[V:2] e2f3de2 | 
[V:3] G2d4c2 | 
[V:4] E2D4A2 | 
[V:5] z8 | 
[V:1] cBAGA4 | 
[V:2] f2g4f2 | 
[V:3] A2B2c2d2 | 
[V:4] F2E2A4 | 
[V:5] z4z2D,2 | 
[V:1] G8- | 
[V:2] g2e2d2e2- | 
[V:3] G3AB2G2- | 
[V:4] E4z2E2- | 
[V:5] E,2C,2B,,2C,2- | 
[V:1] G8 | 
[V:2] e2dcd4 | 
[V:3] G2c4B2 | 
[V:4] EFG3FD2 | 
[V:5] C,2B,,A,,G,,4 | 
[V:1] z8 | 
[V:2] c8 | 
[V:3] c3BA2G2 | 
[V:4] A3BcBc2- | 
[V:5] A,,2A,3G,E,2 | 
[V:1] z8 | 
[V:2] z4e4 | 
[V:3] A4B4 | 
[V:4] cBA3GFE/D/ | 
[V:5] F,4E,4 | 
[V:1] A8 | 
[V:2] e2d3cc2- | 
[V:3] A8 | 
[V:4] C2F4E2 | 
[V:5] A,,2D,4A,,2 | 
[V:1] F4E4 | 
[V:2] c2B2c4 | 
[V:3] z8 | 
[V:4] F4G4 | 
[V:5] D,4C,4 | 
[V:1] F4G4- | 
[V:2] d4e4- | 
[V:3] A4G4 | 
[V:4] F4E4 | 
[V:5] z4C,4- | 
[V:1] G4A4- | 
[V:2] e2d2d4- | 
[V:3] c2B2A2G2 | 
[V:4] G4F4- | 
[V:5] C,4F,4 | 
[V:1] A2G2G4- | 
[V:2] d4c4 | 
[V:3] F4G4 | 
[V:4] F2E2C4 | 
[V:5] D,4E,4 | 
[V:1] G4^F4 | 
[V:2] d8- | 
[V:3] A8 | 
[V:4] F6D2 | 
[V:5] D,8 | 
[V:1] G8 ||  
[V:2] d8 ||  
[V:3] G8 ||  
[V:4] D8 ||  
[V:5] G,,8 ||  
[V:1]  [K:C] [K:clef=treble][M:2/1]F8- | 
[V:2]  [K:C] [K:clef=treble-8][M:2/1]d4A2d2- | 
[V:3]  [K:C] [K:clef=treble-8][M:2/1]z8 | 
[V:4]  [K:C] [K:clef=treble-8][M:2/1]A8- | 
[V:5]  [K:C] [K:clef=bass][M:2/1]D,8- | 
[V:1] F8 | 
[V:2] d2cBA4 | 
[V:3] z8 | 
[V:4] A4d4 | 
[V:5] D,8 | 
[V:1] G8- | 
[V:2] e8- | 
[V:3] c4G2c2- | 
[V:4] G8- | 
[V:5] C,8- | 
[V:1] G8 | 
[V:2] e8 | 
[V:3] c2BAG4 | 
[V:4] G4c4- | 
[V:5] C,8 | 
[V:1] A8 | 
[V:2] f8- | 
[V:3] F4c4- | 
[V:4] c4A4 | 
[V:5] F,8 | 
[V:1] z4c4- | 
[V:2] f8 | 
[V:3] c2B2A2G2 | 
[V:4] A6B2 | 
[V:5] F,6E,2 | 
[V:1] c2B2A2G2 | 
[V:2] e4f4- | 
[V:3] A4A4 | 
[V:4] c4F4 | 
[V:5] C,4D,4- | 
[V:1] A4G4- | 
[V:2] f2d4c2 | 
[V:3] F4G4 | 
[V:4] z4C4 | 
[V:5] D,4E,4 | 
[V:1] G2^FEF4 | 
[V:2] d8 | 
[V:3] A8 | 
[V:4] F3GA2D2- | 
[V:5] D,8 | 
[V:1] G4z4 | 
[V:2] z4g4- | 
[V:3] G8 | 
[V:4] D2d3cBA | 
[V:5] G,,8 | 
[V:1] d6c2 | 
[V:2] g2f2e4 | 
[V:3] z8 | 
[V:4] G2D2A4 | 
[V:5] z8 | 
[V:1] B4A4 | 
[V:2] d2g3ff2 | 
[V:3] z8 | 
[V:4] z4z2D2 | 
[V:5] z8 | 
[V:1] G2A4F2- | 
[V:2] e2c2d3c/B/ | 
[V:3] z8 | 
[V:4] E2F3Dd2- | 
[V:5] z4D,3E, | 
[V:1] F2D4G2- | 
[V:2] A2d4c2 | 
[V:3] z8 | 
[V:4] dcB4AG | 
[V:5] F,2G,3F,E,2 | 
[V:1] G2^F2G4 | 
[V:2] d4z4 | 
[V:3] z8 | 
[V:4] A4G4- | 
[V:5] D,4G,4 | 
[V:1] z8 | 
[V:2] d4g4- | 
[V:3] B8 | 
[V:4] G4z4 | 
[V:5] z4E,4- | 
[V:1] z8 | 
[V:2] g4f4 | 
[V:3] c4d4- | 
[V:4] G4A4 | 
[V:5] E,4F,4 | 
[V:1] z8 | 
[V:2] d6g2- | 
[V:3] d2B4G2- | 
[V:4] B2G3AB2 | 
[V:5] G,6E,2- | 
[V:1] z8 | 
[V:2] gfedc4 | 
[V:3] G2c4A2 | 
[V:4] c3BAGF2- | 
[V:5] E,C,C,2F,4 | 
[V:1] z8 | 
[V:2] z8 | 
[V:3] B2c2d2e2- | 
[V:4] F2G2A2B2 | 
[V:5] D,2E,2F,2G,2 | 
[V:1] z8 | 
[V:2] z8 | 
[V:3] edcBA2d2- | 
[V:4] c2A4F2 | 
[V:5] A,3G,F,E,D,2 | 
[V:1] G3ABcd2 | 
[V:2] z4z2f2 | 
[V:3] d2c2d4 | 
[V:4] G4F4 | 
[V:5] E,4D,4 | 
[V:1] G2d3cc2- | 
[V:2] e2f2g2fe | 
[V:3] z8 | 
[V:4] z8 | 
[V:5] z2D,2E,2F,2 | 
[V:1] c2B2c4 | 
[V:2] d4c3d | 
[V:3] z8 | 
[V:4] z4E4- | 
[V:5] G,4C,4- | 
[V:1] z4c4 | 
[V:2] ede3dc2- | 
[V:3] G8- | 
[V:4] E8 | 
[V:5] C,8 | 
[V:1] d8 | 
[V:2] c2BAB4 | 
[V:3] G8 | 
[V:4] D8 | 
[V:5] G,,8 | 
[V:1] e4c4 | 
[V:2] c8 | 
[V:3] E8 | 
[V:4] C4A4- | 
[V:5] C,4A,,4 | 
[V:1] A4d4- | 
[V:2] d8 | 
[V:3] F8- | 
[V:4] A8 | 
[V:5] D,8- | 
[V:1] d2c2A4 | 
[V:2] f8 | 
[V:3] F8 | 
[V:4] A8 | 
[V:5] D,8 | 
[V:1] B8 | 
[V:2] g8 | 
[V:3] D8 | 
[V:4] G8 | 
[V:5] G,,8 | 
[V:1] A4d4- | 
[V:2] a6g2 | 
[V:3] F8 | 
[V:4] F4D4- | 
[V:5] D,8- | 
[V:1] d4c4 | 
[V:2] f4e4 | 
[V:3] A8- | 
[V:4] D4E4 | 
[V:5] D,4A,,4 | 
[V:1] A4B4 | 
[V:2] f4g4 | 
[V:3] A4G4- | 
[V:4] D4D4- | 
[V:5] D,4B,,4 | 
[V:1] c6BA | 
[V:2] a8 | 
[V:3] G4^F4 | 
[V:4] D4C4 | 
[V:5] A,,8 | 
[V:1] B4d4 | 
[V:2] d3ed2g2- | 
[V:3] G8- | 
[V:4] D2G3FED | 
[V:5] G,,8 | 
[V:1] c8 | 
[V:2] gfede4 | 
[V:3] G8- | 
[V:4] E4C4 | 
[V:5] C,8 | 
[V:1] B8 |]  
[V:2] d8 |]  
[V:3] G8 |]  
[V:4] D8 |]  
[V:5] G,,8 |]  



